**kern	**kern	**kern
*staff3	*staff2	*staff1
*tb32	*tb32	*tb32
*clefF4	*clefF4	*clefG2
*k[f#c#g#]	*k[f#c#g#]	*k[f#c#g#]
*M2/4	*M2/4	*M2/4
*A:	*A:	*A:
8r	8r	8e'J
*clefF4	*	*
=139	=139	=139
2A	(8c#L	(24aLL
.	.	24b
.	.	24cc#J
.	8eJ	24ddL
.	.	24ee
.	.	24ff#JJ
.	8dL	24gg#LL
.	.	24aa
.	.	24bbJ)
.	8c#J)	16ccc#'L
.	.	16ddd'JJ
=140	=140	=140
2G#	(8BL	(8ddd#
.	8dJ	4eee
.	8c#L	.
.	8BJ)	8ddd)
=141	=141	=141
2A	(8c#L	8ccc#L
.	8eJ	(24cc#L
.	.	24dd
.	.	24eeJJ
.	8dL	24ff#LL
.	.	24gg#
.	.	24aaJ
.	8c#J)	24bbL
.	.	24ccc#
.	.	24dddJJ)
=142	=142	=142
2G#	(8BL	(8ddd#
.	8dJ	4eee
.	8c#L	.
.	8BJ)	8ddd)
=143	=143	=143
4A	(8AL	4ccc#
.	8eJ)	.
4E	(8EL	(16bbLL
.	.	16ddd
.	8dJ)	16bb
.	.	16gg#JJ
=144	=144	=144
8AL	8c#L	8aa')
*	*clefG2	*
16dL	(8ff#J	4aa
16AJJ	.	.
16c#LL	8eeL)	.
16A	.	.
16d	8ff#J	8aa
16AJJ	.	.
=145	=145	=145
8e	8cc#	8aa'L
8r	8r	24eeL
.	.	24cc#
.	.	24aJJ
8E	4r	8g#L
8r	.	24ddL
.	.	24b
.	.	24g#JJ
=146	=146	=146
16C#LL	8r	8aL
16AA	.	.
16D	4A	(8f#J
16AAJJ	.	.
16C#LL	.	8eL)
16AA	.	.
16D	8f#	8aJ
16AAJJ	.	.
=147	=147	=147
8E	8c#'	8a'L
8r	8r	24eeL
.	.	24cc#
.	.	24aJJ
8EE	4r	8bL
8r	.	24ddL
.	.	24ee
.	.	24gg#JJ
=148	=148	=148
4AA	4.r	4cc# 4aa
8r	.	8r
*||	*||	*||
*-	*-	*-
